icons/spreadsheets_fill.svg

<svg width="48" height="48" viewBox="0 0 48 48" fill="none" xmlns="http://www.w3.org/2000/svg">
<path d="M16 20V23H32V20H16Z" fill="black"/>
<path d="M16 28V25H20V28H16Z" fill="black"/>
<path d="M16 30V33H20V30H16Z" fill="black"/>
<path d="M22 30V33H26V30H22Z" fill="black"/>
<path d="M28 30V33H32V30H28Z" fill="black"/>
<path d="M28 28V25H32V28H28Z" fill="black"/>
<path d="M26 28H22V25H26V28Z" fill="black"/>
<path fill-rule="evenodd" clip-rule="evenodd" d="M30 4H11C10.4477 4 10 4.44772 10 5V43C10 43.5523 10.4477 44 11 44H37C37.5523 44 38 43.5523 38 43V12H31C30.4477 12 30 11.5523 30 11V4ZM14 19C14 18.4477 14.4477 18 15 18H33C33.5523 18 34 18.4477 34 19V34C34 34.5523 33.5523 35 33 35H15C14.4477 35 14 34.5523 14 34V19Z" fill="black"/>
<path d="M37.4142 10H32V4.58579L37.4142 10Z" fill="black"/>
</svg>

<svg
  xmlns="http://www.w3.org/2000/svg"
  width="24"
  height="24"
  viewBox="0 0 24 24"
  fill="none"
  stroke="currentColor"
  stroke-width="2"
  stroke-linecap="round"
  stroke-linejoin="round"
>
  <path d="M16 20v3h16v-3z" />
  <path d="M16 28v-3h4v3z" />
  <path d="M16 30v3h4v-3z" />
  <path d="M22 30v3h4v-3z" />
  <path d="M28 30v3h4v-3z" />
  <path d="M28 28v-3h4v3z" />
  <path d="M26 28h-4v-3h4z" />
  <path
    fill-rule="evenodd"
    d="M30 4H11a1 1 0 0 0-1 1v38a1 1 0 0 0 1 1h26a1 1 0 0 0 1-1V12h-7a1 1 0 0 1-1-1zM14 19a1 1 0 0 1 1-1h18a1 1 0 0 1 1 1v15a1 1 0 0 1-1 1H15a1 1 0 0 1-1-1z"
    clip-rule="evenodd"
  />
  <path d="M37.414 10H32V4.586z" />
</svg>
